X:115
T: McAuliffe's
S: "First Collection of Traditional Irish Music" (M.Mulvihill)
Z: B.Black
L: 1/8
M: 6/8
R: jig
K: G
D|GFG BAB|dcd efg|GFG dBG|ABG AFD|
GFG BAB|dcd efg|age dBA|BGF G2 :|
d|gfg efg|aga bge|gfg e/f/ge|dBG AFD|
gfg efg|aga bge|g2 e dBA|BGF G2 :|
